X:7640
T:Touching Cloth
O:england
M:4/4
L:1/8
C:James Kelly
S:From James Kelly and Zan McLeod: The Ring Sessions
R:Reel
K:E
B~E3 cBGc | Bceg fgec | B~E3 cBGc | Bege f2ec |
B~E3 cBGc | Bceg faga | bgeg fgec | Bege fgec ::
Be (3eee Bege | Bege fgec | Be (3eee Bege | (3fga ge f2ec |
Be (3eee Bege | Bege faga | bgeg fgec | Bege f2ec :|


